X:190
T:Jack's Delight
M:2/4
L:1/8
B:Thompson's Compleat Collection of 200 Favourite Country Dances, vol. 1 (London, 1757)
Z:Transcribed and edited by Flynn Titford-Mock, 2007
Z:abc's:AK/Fiddler's Companion
K:G
G2G2|A2D2|"tr"D2 AG|E/E/E E2|(ga/b/) ag|"tr"f2 ed|"tr"B2 AG|D/D/D D2:|
(Bd)dc/d/|ec "tr"c2|(Ac)cB/c/|dB "tr"B2|(GB)BA/B/|cAAB/c/|dBcA|G/G/G G2:|

